icons/1_Primary/ID.me.svg

<svg width="1024" height="1024" viewBox="0 0 1024 1024" fill="none" xmlns="http://www.w3.org/2000/svg">
<g clip-path="url(#clip0_2_2481)">
<path d="M512 1024C794.77 1024 1024 794.77 1024 512C1024 229.23 794.77 0 512 0C229.23 0 0 229.23 0 512C0 794.77 229.23 1024 512 1024Z" fill="#54688C"/>
<path d="M251.82 391.82H241.16C227.57 391.82 220.96 395.82 220.96 403.57V598.22C220.96 605.93 227.57 609.97 241.16 609.97H251.81C265.03 609.97 272.01 605.97 272.01 598.22V403.57C272 395.86 265 391.82 251.82 391.82ZM440.23 586.47C440.199 575.457 443.67 564.718 450.141 555.806C456.612 546.894 465.748 540.27 476.23 536.89C478.8 526.24 479.9 514.12 479.9 501.26C479.9 430.38 444.27 391.81 380 391.81H311.31C301.76 391.81 297.31 396.22 297.31 405.81V595.65C297.31 605.2 301.72 609.65 311.31 609.65H380C404.607 609.65 424.807 604.14 440.6 593.12C440.281 590.919 440.157 588.693 440.23 586.47ZM380 566.27H348.41V435.52H380C419.67 435.52 427.75 471.15 427.75 500.89C427.75 530.63 419.66 566.27 380 566.27ZM492.38 562.6C497.101 562.6 501.716 564 505.641 566.623C509.567 569.246 512.626 572.974 514.433 577.335C516.24 581.697 516.712 586.497 515.791 591.127C514.87 595.757 512.597 600.01 509.259 603.349C505.92 606.687 501.667 608.96 497.037 609.881C492.406 610.802 487.607 610.33 483.245 608.523C478.884 606.716 475.156 603.657 472.533 599.732C469.91 595.806 468.51 591.191 468.51 586.47C468.51 580.139 471.025 574.068 475.501 569.591C479.978 565.115 486.049 562.6 492.38 562.6ZM831 552.68C830.307 552.38 829.552 552.253 828.8 552.31C825.49 552.31 823.29 553.41 821.45 556.72C820.35 558.56 819.25 560.39 818.14 562.6C813.73 569.95 809.33 577.66 802.71 583.17C793.9 590.52 781.04 594.17 770.02 591.98C763.41 590.88 759.02 586.1 756.02 582.43C750.88 575.43 748.67 566.27 749.02 555.62C765.18 554.15 813.66 547.17 817.7 510.45C818.148 507.088 817.854 503.669 816.838 500.433C815.822 497.197 814.109 494.223 811.82 491.72C805.94 485.11 796.76 481.8 785.74 481.8C753.42 481.8 721.47 515.59 717.43 554.15C716.275 564 717.652 573.981 721.43 583.15C719.039 585.395 716.313 587.254 713.35 588.66C712.382 589.291 711.28 589.686 710.132 589.813C708.984 589.94 707.822 589.795 706.74 589.39C704.54 588.29 703.8 586.08 703.43 583.88C702.33 576.88 703.8 568.82 705.63 560.37C706.73 555.6 708.2 550.45 709.3 545.68C713.3 531.68 717.38 517.4 715.91 502.68C714.81 489.46 705.26 481.01 691.3 481.01C671.83 481.01 658.98 495.01 650.9 506.72C650.9 497.91 648.7 491.29 644.66 487.25C640.62 483.21 635.11 481.01 627.4 481.01C608.3 481.01 595.81 494.23 587.4 506.01C587.4 504.91 587.77 503.81 587.77 502.7C588.14 497.56 588.5 490.58 584.46 486.17C582.26 483.6 578.58 482.17 573.81 482.17C570.609 482.061 567.407 482.306 564.26 482.9C564.26 482.9 559.85 483.63 558.38 485.1C555.44 487.67 556.54 491.34 556.91 493.55V494.28C557.238 496.598 557.362 498.94 557.28 501.28C556.55 515.28 553.97 529.19 551.77 541.28C550.3 547.52 548.83 554.13 547.36 560.75C544.05 575.07 540.75 589.75 538.91 604.46C538.813 605.167 538.86 605.885 539.049 606.573C539.238 607.261 539.565 607.903 540.01 608.46C541.056 609.567 542.489 610.226 544.01 610.3H545.11C555.76 610.3 566.04 609.93 568.25 604.06C570.82 597.45 572.25 589.37 573.76 582.39L574.49 579.08C577.43 562.92 580.37 551.17 585.88 536.08C588.82 528.37 593.96 521.39 598 516.25C603.14 510.01 608.65 503.76 614.53 503.76C615.554 503.696 616.579 503.86 617.532 504.241C618.485 504.621 619.342 505.208 620.04 505.96C625.92 514.04 618.57 539.75 615.27 550.4C614.54 552.6 614.17 554.81 613.8 556.28L611.6 564.73C608.29 577.22 604.99 589.73 603.52 602.93C603.52 604.4 603.15 605.5 603.15 606.93V608.77L604.62 609.87C607.19 612.07 626.62 609.14 626.62 609.14C633.62 606.57 635.43 599.96 635.8 597.75C637.27 591.87 638.37 586.36 639.47 580.49V580.12C641.67 569.47 643.88 558.45 647.18 548.12C653.42 527.55 662.24 513.6 672.52 506.25C676.93 503.31 681.7 502.94 683.52 505.52C687.19 509.93 684.99 522.05 683.89 527.19C682.42 534.19 680.95 541.51 679.12 548.49V549C678.02 553.41 676.92 557.81 675.81 562.59C672.87 576.59 670.3 593.81 678.01 603.72C682.01 608.86 688.29 611.43 696.37 611.43C705.18 611.43 713.26 608.49 722.08 602.25C724.827 600.306 727.471 598.22 730 596C739.92 607.39 751.3 612.16 767.46 612.16C804.19 612.16 821.46 587.55 831.36 569.16C832.615 566.781 833.721 564.327 834.67 561.81C835.78 557.83 834.31 554.15 831 552.68ZM785.83 506.4V510.81C785.609 513.698 784.99 516.542 783.99 519.26C778.85 536.15 763.79 539.46 751.3 539.83C753.082 532.636 755.543 525.628 758.65 518.9C764.89 506.05 772.65 498.33 779.22 498.33C779.856 498.273 780.495 498.402 781.06 498.7C781.43 498.7 781.43 499.07 781.79 499.07H782.52C782.89 499.07 782.89 499.44 783.25 499.8L783.62 500.17L783.99 500.54C783.99 500.91 784.36 500.91 784.36 501.27L784.73 501.64C784.73 502.01 785.1 502.01 785.1 502.37C785.129 502.651 785.26 502.911 785.47 503.1C785.47 503.47 785.84 503.83 785.84 504.57V504.94C785.999 505.546 786.123 506.16 786.21 506.78L785.83 506.4Z" fill="white"/>
</g>
<defs>
<clipPath id="clip0_2_2481">
<rect width="1024" height="1024" fill="white"/>
</clipPath>
</defs>
</svg>

<svg width="1024" height="1024" fill="none" xmlns="http://www.w3.org/2000/svg"><g clip-path="url(#a)"><path d="M512 1024c282.77 0 512-229.23 512-512S794.77 0 512 0 0 229.23 0 512s229.23 512 512 512Z" fill="#54688C"/><path d="M251.82 391.82h-10.66c-13.59 0-20.2 4-20.2 11.75v194.65c0 7.71 6.61 11.75 20.2 11.75h10.65c13.22 0 20.2-4 20.2-11.75V403.57c-.01-7.71-7.01-11.75-20.19-11.75Zm188.41 194.65a51.942 51.942 0 0 1 36-49.58c2.57-10.65 3.67-22.77 3.67-35.63 0-70.88-35.63-109.45-99.9-109.45h-68.69c-9.55 0-14 4.41-14 14v189.84c0 9.55 4.41 14 14 14H380c24.607 0 44.807-5.51 60.6-16.53a37.735 37.735 0 0 1-.37-6.65ZM380 566.27h-31.59V435.52H380c39.67 0 47.75 35.63 47.75 65.37 0 29.74-8.09 65.38-47.75 65.38Zm112.38-3.67a23.867 23.867 0 0 1 22.053 14.735A23.87 23.87 0 1 1 492.38 562.6ZM831 552.68a4.653 4.653 0 0 0-2.2-.37c-3.31 0-5.51 1.1-7.35 4.41-1.1 1.84-2.2 3.67-3.31 5.88-4.41 7.35-8.81 15.06-15.43 20.57-8.81 7.35-21.67 11-32.69 8.81-6.61-1.1-11-5.88-14-9.55-5.14-7-7.35-16.16-7-26.81 16.16-1.47 64.64-8.45 68.68-45.17a23.206 23.206 0 0 0-5.88-18.73c-5.88-6.61-15.06-9.92-26.08-9.92-32.32 0-64.27 33.79-68.31 72.35a58.299 58.299 0 0 0 4 29 31.588 31.588 0 0 1-8.08 5.51 7.378 7.378 0 0 1-6.61.73c-2.2-1.1-2.94-3.31-3.31-5.51-1.1-7 .37-15.06 2.2-23.51 1.1-4.77 2.57-9.92 3.67-14.69 4-14 8.08-28.28 6.61-43-1.1-13.22-10.65-21.67-24.61-21.67-19.47 0-32.32 14-40.4 25.71 0-8.81-2.2-15.43-6.24-19.47-4.04-4.04-9.55-6.24-17.26-6.24-19.1 0-31.59 13.22-40 25 0-1.1.37-2.2.37-3.31.37-5.14.73-12.12-3.31-16.53-2.2-2.57-5.88-4-10.65-4a43.502 43.502 0 0 0-9.55.73s-4.41.73-5.88 2.2c-2.94 2.57-1.84 6.24-1.47 8.45v.73c.328 2.318.452 4.66.37 7-.73 14-3.31 27.91-5.51 40-1.47 6.24-2.94 12.85-4.41 19.47-3.31 14.32-6.61 29-8.45 43.71a5.268 5.268 0 0 0 1.1 4 5.897 5.897 0 0 0 4 1.84h1.1c10.65 0 20.93-.37 23.14-6.24 2.57-6.61 4-14.69 5.51-21.67l.73-3.31c2.94-16.16 5.88-27.91 11.39-43 2.94-7.71 8.08-14.69 12.12-19.83 5.14-6.24 10.65-12.49 16.53-12.49a6.922 6.922 0 0 1 3.002.481c.953.38 1.81.967 2.508 1.719 5.88 8.08-1.47 33.79-4.77 44.44-.73 2.2-1.1 4.41-1.47 5.88l-2.2 8.45c-3.31 12.49-6.61 25-8.08 38.2 0 1.47-.37 2.57-.37 4v1.84l1.47 1.1c2.57 2.2 22-.73 22-.73 7-2.57 8.81-9.18 9.18-11.39 1.47-5.88 2.57-11.39 3.67-17.26v-.37c2.2-10.65 4.41-21.67 7.71-32 6.24-20.57 15.06-34.52 25.34-41.87 4.41-2.94 9.18-3.31 11-.73 3.67 4.41 1.47 16.53.37 21.67-1.47 7-2.94 14.32-4.77 21.3v.51c-1.1 4.41-2.2 8.81-3.31 13.59-2.94 14-5.51 31.22 2.2 41.13 4 5.14 10.28 7.71 18.36 7.71 8.81 0 16.89-2.94 25.71-9.18A96.536 96.536 0 0 0 730 596c9.92 11.39 21.3 16.16 37.46 16.16 36.73 0 54-24.61 63.9-43a64.588 64.588 0 0 0 3.31-7.35c1.11-3.98-.36-7.66-3.67-9.13Zm-45.17-46.28v4.41a31.415 31.415 0 0 1-1.84 8.45c-5.14 16.89-20.2 20.2-32.69 20.57a117.047 117.047 0 0 1 7.35-20.93c6.24-12.85 14-20.57 20.57-20.57a3.311 3.311 0 0 1 1.84.37c.37 0 .37.37.73.37h.73c.37 0 .37.37.73.73l.37.37.37.37c0 .37.37.37.37.73l.37.37c0 .37.37.37.37.73.029.281.16.541.37.73 0 .37.37.73.37 1.47v.37c.159.606.283 1.22.37 1.84l-.38-.38Z" fill="#fff"/></g><defs><clipPath id="a"><path fill="#fff" d="M0 0h1024v1024H0z"/></clipPath></defs></svg>
